icons/rego.svg

<svg width="16" height="16" viewBox="0 0 16 16" fill="none" xmlns="http://www.w3.org/2000/svg">
<path d="M4 1C2.8 3.8 4.16667 5.5 5 6L4 8C0.500004 5.5 1.5 2 4 1Z" fill="#86B4C2"/>
<path d="M12 1C13.2 3.8 11.8333 5.5 11 6L12 8C15.5 5.5 14.5 2 12 1Z" fill="#497581"/>
<path fill-rule="evenodd" clip-rule="evenodd" d="M12.5 11.5V8C12.5 6.66667 11.6 4 8 4V7C8.55228 7 9 7.44772 9 8C9 8.55228 8.55228 9 8 9V15C8.33333 14.1667 9.7 12.3 12.5 11.5Z" fill="#497581"/>
<path fill-rule="evenodd" clip-rule="evenodd" d="M3.5 8V11.5C6.3 12.3 7.66667 14.1667 8 15V9C7.44772 9 7 8.55228 7 8C7 7.44772 7.44772 7 8 7V4C4.4 4 3.5 6.66667 3.5 8Z" fill="#86B4C2"/>
</svg>

<svg xmlns="http://www.w3.org/2000/svg" width="16" height="16" fill="none"><path fill="#86B4C2" d="M4 1c-1.2 2.8.167 4.5 1 5L4 8C.5 5.5 1.5 2 4 1Z"/><path fill="#497581" d="M12 1c1.2 2.8-.167 4.5-1 5l1 2c3.5-2.5 2.5-6 0-7Z"/><path fill="#497581" fill-rule="evenodd" d="M12.5 11.5V8c0-1.333-.9-4-4.5-4v3a1 1 0 0 1 0 2v6c.333-.833 1.7-2.7 4.5-3.5Z" clip-rule="evenodd"/><path fill="#86B4C2" fill-rule="evenodd" d="M3.5 8v3.5c2.8.8 4.167 2.667 4.5 3.5V9a1 1 0 0 1 0-2V4C4.4 4 3.5 6.667 3.5 8Z" clip-rule="evenodd"/></svg>
